X:1
L:1/8
M:4/4
I:linebreak 
K:Gmaj
N:Bond theme
V:1
 E,F,/F,/ F,F,- F,E,E,E, | E,G,/G,/ G,G,- G,F,F,F, | E,F,/F,/ F,F,- F,E,E,E, | E,G,/G,/ G,G,- G,F,F,F, | 
 E,F,/F,/ F,F,- F,E,E,E, | E,G,/G,/ G,G,- G,F,F,E, | ^D=D- D4 B,A, | B,6 z2 | 
 E,F,/F,/ F,F,- F,E,E,E, | E,G,/G,/ G,G,- G,F,F,F, | E,F,/F,/ F,F,- F,E,E,E, |E,G,/G,/ G,G,- G,F,F,F, | 
  E,F,/F,/ F,F,- F,E,E,E, |  E,G,/G,/ G,G,- G,F,F,E, | ^D=D- D4 B,A, |  B,6 z2 |
 (3B,-B, B,  z2 z2 (3B,-B, B, | z4 B,/B,B,/ B,B, |] 